square-circle-outline.svg

<svg fill="currentColor" viewBox="0 0 24 24"><path d="M18 12c0-3.31-2.69-6-6-6s-6 2.69-6 6 2.69 6 6 6 6-2.69 6-6m-6-4a3.999 3.999 0 1 1 .002 8.002A3.999 3.999 0 0 1 12 8m8-4H4v16h16zm2-2v20H2V2z"/></svg>

<svg  viewBox="0 0 24 24" fill="currentColor"><path  d="M18 12C18 8.69 15.31 6 12 6C8.69 6 6 8.69 6 12C6 15.31 8.69 18 12 18C15.31 18 18 15.31 18 12M12 8C14.21 8 16 9.8 16 12C16 14.21 14.21 16 12 16C9.8 16 8 14.21 8 12C8 9.8 9.8 8 12 8M20 4H4V20H20V4M22 2V22H2V2H22Z"/></svg>
